X: 1359
T: Cosgrove's Cakewalk
B: australian traditional tunes wiki
M:4/4
L:1/8
R: Schottische
Q: 1/4=100
K:G
V:1 
(3DEF|"G"G2G>FG2A2|B2B>c B>A G>A|B2B>AB2B>G|"D7"A>B c>A"G"B2d>d|
"C"e2e>c "G"d2d>B|"D7"c>B A>G F>D (3DEF|"G"G2G>B"C"E2A>G|"D"F>D E>F"G"G2 G>B||
"G"d2d>BG2B>d|"C"c>B A>G "D"F>D (3GBc|"G"d2d>BG2B>G|"A7"(3ABA G>E"D7"D2B>c|
"G"d2d>BG2B>d|"C"c>B A>G "D"F>D (3DEF|"G"G2G>B"C"E2A>G|"D"F>D E>F "G"G2||
% abcbook-tune_id 6342d53ae79402eabcfe74f6


% abcbook-boost 0
% abcbook-tablature 
% abcbook-transpose 
% abcbook-lastupdated 1665324360994
% abcbook-soundfonts 
% abcbook-repeats 1
% NFF Book 2017

